!! 00005] TT[TB
!! Eigene Aufnahme
!!!OTL: Gan shengling
!!!ARE: Asia, China,ˇShaanxi, Shanbei
!! Ethnic Group: Han
!! I, 75, 1)
!!!SCT: C1393
!!!YEM: Copyright 1995, estate of Helmut Schaffrath.
**kern
*ICvox
*Ivox
*M2/4
*k[]
*C:
{4g
8g
8cc
=1
8.a
16g
8e
8d
=2
4d
4cc
=3
2dd
=4
2dd]}
=5
{4a
4g
=6
8.dd
16dd
8cc
8a
=7
2g
=8
4g]}
{8dd
8dd
=9
4dd
8dd
8gg
=10
4dd
8cc
8dd
=11
4cc
8a
8g
=12
4d
4cc}
=13
{8.dd
16gg
4g
=14
4cc
8b
8a
=15
2g}
==
!!!AGN: Shange, Xintianyou. NannÅ siqing
!! +++Ggf. schon vorhanden?? Doublette? Saengerin: Huang Bai
!!    Wenig Verzierungen. Inhalt: Eine Frau sehnt sich nach ihrem Mann,
!!    der sich irgendwo als Gastarbeiter verdingt.
!!    Doppelt in C0024 und C0941.
!!!ONB: ESAC (Essen Associative Code) Database: CHINA
!!!AMT: simple duple
!!!AIN: vox
!!!EED: Helmut Schaffrath
!!!EEV: 1.0
*-
!!!OTL: Woge
!!!ARE: Asia, China,ˇHubei, Mianyang
!! I, 464
!!!SCT: C1462
!!!YEM: Copyright 1995, estate of Helmut Schaffrath.
**kern
*ICvox
*Ivox
*M2/4
*k[b-e-]
*B-:
{8dd
16dd
16gg
4ff
=1
8b-
16b-
16cc
4b-
=2
4ff
8ff
8cc
=3
8.dd
16cc
4b-}
=4
{8dd
16dd
16ff
8b-
16b-
16cc
=5
16b-
16cc
16dd
16cc
4b-
=6
8.b-
16g
8f
8g
=7
8b-
8g
4b-}
=8
{8b-
16g
16b-
8.dd
16ff
=9
16g
8dd
16b-
8b-
8g
=10
4b-
8cc
8b-
=11
8g
8g
4f}
=12
{8g
16f
16g
8f
8g
=13
8b-
8g
4f
=14
8.g
16g
8f
8g
=15
8b-
8g
4b-}
==
!!!AGN: Haozi, Sipingqiang, Dahang
!!!ONB: ESAC (Essen Associative Code) Database: HUANG
!!!AMT: simple duple
!!!AIN: vox
!!!EED: Helmut Schaffrath
!!!EEV: 1.0
*-
